!!!COM:	Bach, Johann Sebastian
!!!OMV:	Meine Seele erhebet den Herrn
!!!OTL:	Meine Seele erhebet den Herrn
**kern	**fb	**kern	**kern	**kern
*part4	*part4	*part3	*part2	*part1
*staff4	*	*staff3	*staff2	*staff1
*I"Voice	*	*I"Voice	*I"Voice	*I"Voice
*I'V	*	*I'V	*I'V	*I'V
*clefF4	*	*clefGv2	*clefG2	*clefG2
*k[b-e-]	*	*k[b-e-]	*k[b-e-]	*k[b-e-]
*M4/4	*	*M4/4	*M4/4	*M4/4
=	=	=	=	=
2G	.	2B-	2g	2dd
2A	6	2c	2f	2ff
=3	=3	=3	=3	=3
4B-	5	4d	4f	4dd
4A	#6\ 4 3	4c	4f#X	4dd
4G	.	4B-	4g	4dd
4F#X	6	4A	4a	4dd
=4	=4	=4	=4	=4
4G	6	4B-	4g	2ee-
4A	6 5	2c	2fn	.
4B-	9	.	.	2dd
4G	5	4B-	4f	.
=5	=5	=5	=5	=5
4E-	6 5	2B-	2g	2cc
4C	.	.	.	.
2F	.	2A	2f	2cc
=6	=6	=6	=6	=6
1BB-;	.	1d;	1f;	1b-;
=7	=7	=7	=7	=7
2B-	.	1B-	1f	2dd
2D	6	.	.	2ff
=8	=8	=8	=8	=8
4F	.	4A	4f	4cc
4A	.	4c	4f	4cc
4c	3	4G	4e-	4cc
4E-	6	4c	4g	4g
=9	=9	=9	=9	=9
4D	6 4	2.d	2g	2b-
4C	.	.	.	.
2D	5 #	.	2f#X	2a
.	.	4c	.	.
=10	=10	=10	=10	=10
1GG;	.	1B-;	1d;	1g;
=11	=11	=11	=11	=11
2G	.	2B-	2g	2dd
2F	.	2c	2a	2ff
=12	=12	=12	=12	=12
!!linebreak:original
4B-	.	4d	2.f	4dd
4c	.	4c	.	4dd
[2d	6 3	4B-	.	4dd
.	5 #	4A	4f#X	4dd
=13	=13	=13	=13	=13
4d]	6 4 2	4B-	4g	2ee-
4c	6	4c	4a	.
4B-	.	4F	[2b-	2dd
4D	6	4f	.	.
=14	=14	=14	=14	=14
4E-	6 5	2g	4b-]	2cc
4C	.	.	4b-	.
2F	8 4	4f	4b-	2cc
.	7 3	4c	4a	.
=15	=15	=15	=15	=15
1BB-;	.	1d;	1f;	1b-;
=16	=16	=16	=16	=16
4BB-	.	2r	1r	2dd
4C	.	.	.	.
4D	6	4F	.	2ff
4E-	.	4G	.	.
=17	=17	=17	=17	=17
2.F	.	4A	4f	4cc
.	.	4B-	4g	4cc
.	.	[2c	4a	4cc
4G	nr6 4 3	.	4b-	4cc
=18	=18	=18	=18	=18
4A	6	4c]	2cc	2cc
4B-	.	4d	.	.
2c	5 n	4en	2c	4g
.	6 #4|	4f#X	.	4a
=19	=19	=19	=19	=19
4BB-	6	2g	2d	2b-
4C	7	.	.	.
4D	3	4fn	4d	2a
4E-	8 6 4	4e-	4c	.
=20	=20	=20	=20	=20
2F	6 nr4 2	4d	4Bn	[1g
.	.	4Bn	4d	.
4E-	6	4c	4g	.
4D	nr6	[4d	4f	.
=21	=21	=21	=21	=21
!!linebreak:original
4C	9	4d]	[1e-	1g_
4D	.	4G	.	.
4E-	6	[2c	.	.
4F	.	.	.	.
=22	=22	=22	=22	=22
1G	6 4	2c]	2e-]	1g_
.	5 n	4Bn	4d	.
.	4 2	4A	4c	.
=23	=23	=23	=23	=23
1GG;	5 n	1Bn;	1d;	1g;]
=||	=||	=||	=||	=||
*-	*-	*-	*-	*-
!!!system-decoration: s1,s2,s3,s4
